assets/dl.svg

<?xml version="1.0" encoding="utf-8"?>
<!-- Uploaded to: SVG Repo, www.svgrepo.com, Generator: SVG Repo Mixer Tools -->
<svg width="800px" height="800px" viewBox="0 0 24 24" xmlns="http://www.w3.org/2000/svg" xmlns:xlink="http://www.w3.org/1999/xlink">
  <defs>
    <path id="download-a" d="M4.29289322,1.70710678 C3.90236893,1.31658249 3.90236893,0.683417511 4.29289322,0.292893219 C4.68341751,-0.0976310729 5.31658249,-0.0976310729 5.70710678,0.292893219 L7.70710678,2.29289322 C8.09763107,2.68341751 8.09763107,3.31658249 7.70710678,3.70710678 C7.31658249,4.09763107 6.68341751,4.09763107 6.29289322,3.70710678 L4.29289322,1.70710678 Z M0,8 L16,8 L16,10 L0,10 L0,8 Z"/>
    <path id="download-c" d="M11,9.58578644 L13.2928932,7.29289322 C13.6834175,6.90236893 14.3165825,6.90236893 14.7071068,7.29289322 C15.0976311,7.68341751 15.0976311,8.31658249 14.7071068,8.70710678 L10.7071068,12.7071068 C10.3165825,13.0976311 9.68341751,13.0976311 9.29289322,12.7071068 L5.29289322,8.70710678 C4.90236893,8.31658249 4.90236893,7.68341751 5.29289322,7.29289322 C5.68341751,6.90236893 6.31658249,6.90236893 6.70710678,7.29289322 L9,9.58578644 L9,0.998529185 C9,0.447056744 9.44771525,-7.95978809e-15 10,-7.99360578e-15 C10.5522847,-8.02742346e-15 11,0.447056744 11,0.998529185 L11,9.58578644 Z M18,16 L18,10 C18,9.44771525 18.4477153,9 19,9 C19.5522847,9 20,9.44771525 20,10 L20,17 C20,17.5522847 19.5522847,18 19,18 L1,18 C0.44771525,18 0,17.5522847 0,17 L0,10 C0,9.44771525 0.44771525,9 1,9 C1.55228475,9 2,9.44771525 2,10 L2,16 L18,16 Z"/>
  </defs>
  <g fill="none" fill-rule="evenodd" transform="translate(2 3)">
    <g transform="translate(2 6)">
      <mask id="download-b" fill="#ffffff">
        <use xlink:href="#download-a"/>
      </mask>
      <use fill="#D8D8D8" fill-rule="nonzero" xlink:href="#download-a"/>
      <g fill="#FFA0A0" mask="url(#download-b)">
        <rect width="24" height="24" transform="translate(-4 -9)"/>
      </g>
    </g>
    <mask id="download-d" fill="#ffffff">
      <use xlink:href="#download-c"/>
    </mask>
    <use fill="#000000" fill-rule="nonzero" xlink:href="#download-c"/>
    <g fill="#7600FF" mask="url(#download-d)">
      <rect width="24" height="24" transform="translate(-2 -3)"/>
    </g>
  </g>
</svg>

<svg width="800" height="800" viewBox="0 0 24 24" xmlns="http://www.w3.org/2000/svg" xmlns:xlink="http://www.w3.org/1999/xlink"><defs><path id="a" d="M4.293 1.707A1 1 0 0 1 5.707.293l2 2a1 1 0 0 1-1.414 1.414l-2-2zM0 8h16v2H0V8z"/><path id="c" d="m11 9.586 2.293-2.293a1 1 0 0 1 1.414 1.414l-4 4a1 1 0 0 1-1.414 0l-4-4a1 1 0 0 1 1.414-1.414L9 9.586V.999a1 1 0 0 1 2 0v8.587zM18 16v-6a1 1 0 0 1 2 0v7a1 1 0 0 1-1 1H1a1 1 0 0 1-1-1v-7a1 1 0 1 1 2 0v6h16z"/></defs><g fill="none" fill-rule="evenodd" transform="translate(2 3)"><g transform="translate(2 6)"><mask id="b" fill="#fff"><use xlink:href="#a"/></mask><use fill="#D8D8D8" fill-rule="nonzero" xlink:href="#a"/><g fill="#FFA0A0" mask="url(#b)"><path d="M-4-9h24v24H-4z"/></g></g><mask id="d" fill="#fff"><use xlink:href="#c"/></mask><use fill="#000" fill-rule="nonzero" xlink:href="#c"/><g fill="#7600FF" mask="url(#d)"><path d="M-2-3h24v24H-2z"/></g></g></svg>
